X:1
T:THE BONNY BAY OF BISCAY-O
M:4/4
L:1/4
K:C
(3G3.99999962500005/11.9999985000002G3.99999962500005/11.9999985000002A3.99999962500005/11.9999985000002G3.99999962500005/11.9999985000002A3.99999962500005/11.9999985000002B3.99999962500005/11.9999985000002|\
 c A GE/2-G/2| c A GE/2-G/2| c A GE/2-G/2| F E D| G,/2 G,/2| C3/2 D/2 E C|\
 F G AA/2-B/2| c G/2F/2 E/2F/2 G/2F/2| E D C||
